build/images/vk-icon.svg

<?xml version="1.0" encoding="UTF-8"?>
<svg xmlns="http://www.w3.org/2000/svg" xmlns:xlink="http://www.w3.org/1999/xlink" width="40pt" height="40pt" viewBox="0 0 40 40" version="1.1">
<g id="surface1">
<path style=" stroke:none;fill-rule:evenodd;fill:rgb(0%,0%,0%);fill-opacity:1;" d="M 0 0 L 0 40 L 40 40 L 40 0 Z M 29.988281 22.128906 C 30.90625 23.027344 31.875 23.867188 32.699219 24.859375 C 33.0625 25.296875 33.410156 25.75 33.671875 26.253906 C 34.042969 26.980469 33.707031 27.777344 33.058594 27.820312 L 29.023438 27.820312 C 27.984375 27.90625 27.152344 27.484375 26.453125 26.773438 C 25.898438 26.207031 25.378906 25.601562 24.839844 25.011719 C 24.621094 24.773438 24.390625 24.546875 24.117188 24.367188 C 23.566406 24.007812 23.085938 24.117188 22.773438 24.691406 C 22.453125 25.277344 22.378906 25.925781 22.347656 26.574219 C 22.304688 27.527344 22.015625 27.773438 21.0625 27.820312 C 19.023438 27.914062 17.089844 27.605469 15.292969 26.578125 C 13.703125 25.671875 12.476562 24.390625 11.40625 22.941406 C 9.324219 20.117188 7.726562 17.015625 6.292969 13.828125 C 5.96875 13.109375 6.207031 12.722656 6.996094 12.710938 C 8.316406 12.683594 9.632812 12.6875 10.949219 12.707031 C 11.484375 12.71875 11.839844 13.023438 12.042969 13.527344 C 12.757812 15.277344 13.628906 16.945312 14.71875 18.488281 C 15.011719 18.902344 15.308594 19.308594 15.730469 19.601562 C 16.199219 19.921875 16.554688 19.816406 16.777344 19.292969 C 16.917969 18.960938 16.976562 18.609375 17.007812 18.253906 C 17.113281 17.035156 17.125 15.820312 16.945312 14.605469 C 16.832031 13.847656 16.402344 13.359375 15.648438 13.214844 C 15.261719 13.140625 15.320312 13 15.507812 12.78125 C 15.832031 12.402344 16.136719 12.164062 16.746094 12.164062 L 21.304688 12.164062 C 22.023438 12.304688 22.183594 12.628906 22.28125 13.351562 L 22.285156 18.414062 C 22.277344 18.695312 22.425781 19.523438 22.925781 19.707031 C 23.328125 19.839844 23.597656 19.519531 23.839844 19.261719 C 24.929688 18.105469 25.707031 16.734375 26.40625 15.316406 C 26.710938 14.695312 26.980469 14.046875 27.238281 13.398438 C 27.429688 12.917969 27.726562 12.683594 28.265625 12.691406 L 32.65625 12.699219 C 32.785156 12.699219 32.917969 12.699219 33.046875 12.71875 C 33.785156 12.847656 33.984375 13.164062 33.757812 13.886719 C 33.398438 15.019531 32.695312 15.964844 32.011719 16.910156 C 31.28125 17.925781 30.5 18.902344 29.769531 19.921875 C 29.105469 20.851562 29.160156 21.320312 29.988281 22.128906 Z M 29.988281 22.128906 "/>
</g>
</svg>

<svg xmlns="http://www.w3.org/2000/svg" width="40pt" height="40pt" viewBox="0 0 40 40"><path d="M0 0v40h40V0zm29.988 22.129c.918.898 1.887 1.738 2.711 2.73.364.438.711.891.973 1.395.371.726.035 1.523-.613 1.566h-4.036c-1.039.086-1.87-.336-2.57-1.047-.555-.566-1.074-1.171-1.613-1.761a3.916 3.916 0 00-.723-.645c-.55-.36-1.031-.25-1.344.324-.32.586-.394 1.235-.425 1.883-.043.953-.332 1.2-1.285 1.246-2.04.094-3.973-.215-5.77-1.242-1.59-.906-2.816-2.187-3.887-3.637-2.082-2.824-3.68-5.925-5.113-9.113-.324-.719-.086-1.105.703-1.117 1.32-.027 2.637-.024 3.953-.004.535.012.89.316 1.094.82.715 1.75 1.586 3.418 2.676 4.961.293.414.59.82 1.011 1.114.47.32.825.214 1.047-.309.141-.332.2-.684.23-1.04.106-1.218.118-2.433-.062-3.648-.113-.757-.543-1.246-1.297-1.39-.386-.074-.328-.215-.14-.434.324-.379.629-.617 1.238-.617h4.559c.718.14.879.465.976 1.188l.004 5.062c-.008.281.14 1.11.64 1.293.403.133.673-.187.915-.445 1.09-1.157 1.867-2.528 2.566-3.946.305-.62.574-1.27.832-1.918.192-.48.489-.714 1.028-.707l4.39.008c.13 0 .262 0 .39.02.74.129.938.445.712 1.168-.36 1.133-1.063 2.078-1.746 3.023-.73 1.016-1.512 1.992-2.242 3.012-.665.93-.61 1.398.218 2.207zm0 0" fill-rule="evenodd"/></svg>
